X: 323
T: The Hector of Edgeworth's Hornpipe
M:3/2
L:1/4
S: 8: MCJLSH3 http://www.cpartington.plus.com/links/Walsh.abc
Z: Pete Stewart 2004
B: Walsh "Third Book of the most Celebrated jiggs, Lancashire hornpipes, ..."
K:G
B>c B/A/G/F/EB | e>g f/g/f/e/^df | g/a/bf/g/ae/f/g | Bee>^de2 ||
B/A/B/c/ B/A/G/F/ G/A/ B | e/d/c/B/ A/B/A/G/FD | GBA/B/c/A/ B/c/d | DGF/G/A/F/G2 |
g/f/g/a/ g/f/e/d/^ce | a/g/a/b/ a/g/f/e/^df | g/b/b/b/ f/a/a/a/ e/g/g/g/ | Be^d/e/f/^d/e2 ||

%%sep 1 1 500
%%sep 1 1 500
